X: 27655
T: Moran's Return
R: barndance
M: 4/4
K: Eminor
G>A|B2 E2 E2 A>G|F>GE>F D2 d>e|f>ed>B d<BA>F|B2 E2 E2:|
F>E|D2 d2 d2 B>^c|d>ed>B A2 d>^c|B2 e2 e2 e>f|g>fe>d B2
e>f|f2 (3agf e2 (3gfe|d>ed>B A2 f>ed>B d<BA>F|B2 E2 E2||

